!! 00000] TT[WS
!!!OTL: Biangong dui
!!!ARE: Asia, China, Shanxi Linxian
!! Ethnic Group: Han
!! WII, 242 (2)
!!!SCT: J0765
!!!YEM: Copyright 1995, estate of Helmut Schaffrath.
**kern
*ICvox
*Ivox
*M2/4
*k[f#]
*G:
{8dd
8dd
8ee
8cc
=1
8dd
8ee
4dd
=2
8a
8dd
8cc
8dd
=3
8f#
8g
4a}
=4
{8dd
8dd
8ee
8cc
=5
8dd
8ee
4dd
=6
8a
8cc
8b
8d
=7
8fn
8g
4a}
=8
{8dd
8b
4dd
=9
8dd
8ee
8dd
8cc
=10
4dd
8g
8a
=11
4cc
8a
8g
=12
8g
8a
8g
8e
=13
2d}
==
!!!AGN: Xiaodiao. Laodong, Xinminge
!!!ONB: ESAC (Essen Associative Code) Database: CHINA
!!!AMT: simple duple
!!!AIN: vox
!!!EED: Helmut Schaffrath
!!!EEV: 1.0
*-
